X:253
T:Ould Ebony. JaW.253
T:Old Ebony. JaW.253
M:2/4
L:1/8
Q:1/4=55
S:James Winder Ms, Lancashire, 1835-41
R:.Quadrille
O:England
A:Wyresdale,Lancashire
N:NB=Half bar missing from MS(.ff/g/)
Z:vmp.Chris Partington, Aug 2004
K:Bb
F|BB/c/ dB|edcB|A/B/c/A/ FF|A/B/c/A/ FG/A/|!
BB/c/ dB|edcB|A/B/c/A/ FA|B2z||!
d/e/|.f f/g/ .ff/g/|fbag|fdBd|c/B/A/B/ cd/e/|!
.f(f/g/) “NB”.f(f/g/)|fbag|f>f f/d/e/c/|BbB|]

